svgs/thin/refrigerator.svg

<svg xmlns="http://www.w3.org/2000/svg" viewBox="0 0 384 512"><!--! Font Awesome Pro 6.6.0 by @fontawesome - https://fontawesome.com License - https://fontawesome.com/license (Commercial License) Copyright 2024 Fonticons, Inc. --><path d="M288 16c44.2 0 80 35.8 80 80l0 80-96 0 0-72c0-4.4-3.6-8-8-8s-8 3.6-8 8l0 72L16 176l0-80c0-44.2 35.8-80 80-80l192 0zM256 192l0 184c0 4.4 3.6 8 8 8s8-3.6 8-8l0-184 96 0 0 256c0 26.5-21.5 48-48 48L64 496c-26.5 0-48-21.5-48-48l0-256 240 0zM0 96l0 88L0 448c0 35.3 28.7 64 64 64l256 0c35.3 0 64-28.7 64-64l0-264 0-88c0-53-43-96-96-96L96 0C43 0 0 43 0 96z"/></svg>

<svg xmlns="http://www.w3.org/2000/svg" viewBox="0 0 384 512"><!--! Font Awesome Pro 6.4.0 by @fontawesome - https://fontawesome.com License - https://fontawesome.com/license (Commercial License) Copyright 2023 Fonticons, Inc. --><path d="M288 16c44.2 0 80 35.8 80 80v80H272V104c0-4.4-3.6-8-8-8s-8 3.6-8 8v72H16V96c0-44.2 35.8-80 80-80H288zM256 192V376c0 4.4 3.6 8 8 8s8-3.6 8-8V192h96V448c0 26.5-21.5 48-48 48H64c-26.5 0-48-21.5-48-48V192H256zM0 96v88V448c0 35.3 28.7 64 64 64H320c35.3 0 64-28.7 64-64V184 96c0-53-43-96-96-96H96C43 0 0 43 0 96z"/></svg>
